!!!COM:	Josquin des Prez
!!!CDT:	~1450-1521/08/27
!!!OTL@@LAT:	Inviolata, integra et casta es
!!!OTL2@@LAT: Nostra ut pura pectora
!!!OTL3@@LAT: O benigna
!!!AGN:	Motet
!!!SCT:	NJE 24.4
!!!SCA:	New Josquin Edition 24.4
!!!OMD: Prima pars
!!!voices:	5
**kern	**text	**kern	**text	**kern	**text	**kern	**text	**kern	**text
*staff5	*staff5	*staff4	*staff4	*staff3	*staff3	*staff2	*staff2	*staff1	*staff1
*Ivox	*	*Ivox	*	*Ivox	*	*Ivox	*	*Ivox	*
*I"Bassus	*	*I"Tenor1	*	*I"Altus	*	*I"Tenor2	*	*I"Superius	*
*I'B	*	*I'T1	*	*I'A	*	*I'T2	*	*I'S	*
*>[A,B,C]	*>[A,B,C]	*>[A,B,C]	*>[A,B,C]	*>[A,B,C]	*>[A,B,C]	*>[A,B,C]	*>[A,B,C]	*>[A,B,C]	*>[A,B,C]
*>A	*>A	*>A	*>A	*>A	*>A	*>A	*>A	*>A	*>A
*clefF4	*	*clefF4	*	*clefGv2	*	*clefGv2	*	*clefG2	*
*k[b-]	*	*k[b-]	*	*k[b-]	*	*k[]	*	*k[b-]	*
*M2/1	*	*M2/1	*	*M2/1	*	*M2/1	*	*M2/1	*
*met(C|)	*	*met(C|)	*	*met(C|)	*	*met(C|)	*	*met(C|)	*
!!section: Prima pars: Inviolata, integra et casta es
!!!OMD: Prima pars: Inviolata, integra et casta es
=1-	=1-	=1-	=1-	=1-	=1-	=1-	=1-	=1-	=1-
!	!	!LO:TX:Z=22:X=-40:t=Canon at the upper fifth (T1-->T2, 3 breves)	!	!	!	!	!	!	!
0r	.	0r	.	0r	.	0r	.	0f	In-
=2	=2	=2	=2	=2	=2	=2	=2	=2	=2
0r	.	0r	.	0r	.	0r	.	1f	-vi-
.	.	.	.	.	.	.	.	1f	-o-
=3	=3	=3	=3	=3	=3	=3	=3	=3	=3
0r	.	0r	.	0r	.	0r	.	0g	-la-
=4	=4	=4	=4	=4	=4	=4	=4	=4	=4
0F	In-	0r	.	0r	.	0r	.	1a	-ta,
.	.	.	.	.	.	.	.	2r	.
.	.	.	.	.	.	.	.	[2cc\	in-
=5	=5	=5	=5	=5	=5	=5	=5	=5	=5
1F	-vi-	0r	.	0r	.	0r	.	4cc\]	.
.	.	.	.	.	.	.	.	4b-\	.
.	.	.	.	.	.	.	.	2.a/	-vi-
1F	-o-	.	.	.	.	.	.	.	.
.	.	.	.	.	.	.	.	4g/	.
.	.	.	.	.	.	.	.	2f/	-o-
=6	=6	=6	=6	=6	=6	=6	=6	=6	=6
0G	-la-	0r	.	0r	.	0r	.	2e/	-la-
.	.	.	.	.	.	.	.	1d	.
.	.	.	.	.	.	.	.	4c/	.
.	.	.	.	.	.	.	.	4B-/	.
=7	=7	=7	=7	=7	=7	=7	=7	=7	=7
1A	-ta,	0r	.	0F	In-	0r	.	1A	-ta,
2.c\	in-	.	.	.	.	.	.	2r	.
.	.	.	.	.	.	.	.	[2cc\	in-
4B-\	.	.	.	.	.	.	.	.	.
=8	=8	=8	=8	=8	=8	=8	=8	=8	=8
4A\	.	0r	.	1F	-vi-	0r	.	4cc\]	.
4G\	.	.	.	.	.	.	.	4b-\	.
2.F\	-vi-	.	.	.	.	.	.	2.a/	-vi-
.	.	.	.	1F	-o-	.	.	.	.
4E\	.	.	.	.	.	.	.	4g/	.
2D\	-o-	.	.	.	.	.	.	2f/	-o-
=9	=9	=9	=9	=9	=9	=9	=9	=9	=9
2C/	-la-	0r	.	0G	-la-	0r	.	2e/	-la-
1BB-	.	.	.	.	.	.	.	1d	.
4AA/	.	.	.	.	.	.	.	4c/	.
4GG/	.	.	.	.	.	.	.	4B-/	.
=10	=10	=10	=10	=10	=10	=10	=10	=10	=10
2FF/	-ta,	0F	In-	0A	-ta,	0r	.	1A	-ta,
2r	.	.	.	.	.	.	.	.	.
2.c\	in-	.	.	.	.	.	.	2r	.
.	.	.	.	.	.	.	.	[2cc\	in-
4B-\	.	.	.	.	.	.	.	.	.
=11	=11	=11	=11	=11	=11	=11	=11	=11	=11
4A\	.	1F	-vi-	1r	.	0r	.	4cc\]	.
4G\	.	.	.	.	.	.	.	4b-\	.
2.F\	-vi-	.	.	.	.	.	.	2.a/	-vi-
.	.	1F	-o-	2.A/	in-	.	.	.	.
4E\	.	.	.	.	.	.	.	4g/	.
2D\	-o-	.	.	.	.	.	.	2f/	-o-
.	.	.	.	4B-\	.	.	.	.	.
=12	=12	=12	=12	=12	=12	=12	=12	=12	=12
2C/	-la-	0G	-la	2c\	-vi-	0r	.	2e/	-la-
1BB-	.	.	.	2d\	-o-	.	.	1d	.
.	.	.	.	2.D/	-la-	.	.	.	.
4AA/	.	.	.	.	.	.	.	4c/	.
4GG/	.	.	.	4E/	.	.	.	4B-/	.
=13	=13	=13	=13	=13	=13	=13	=13	=13	=13
0FF	-ta,	[0A	ta,	1F	-ta,	0c	In-	1A	-ta,
.	.	.	.	1c	in-	.	.	2r	.
.	.	.	.	.	.	.	.	2cc\	in-
=14	=14	=14	=14	=14	=14	=14	=14	=14	=14
2r	.	0A]	.	1A	-te-	1c	-vi-	2.cc\	-vi-
2F\	in-	.	.	.	.	.	.	.	.
.	.	.	.	.	.	.	.	4b-\	.
2.F\	-te-	.	.	2.F/	-gra	1c	-o-	2.a/	.
4E\	.	.	.	4G/	.	.	.	4g/	.
=15	=15	=15	=15	=15	=15	=15	=15	=15	=15
1D	.	1r	.	2A/	.	0d	-la-	2.f/	-o-
.	.	.	.	2.B-\	.	.	.	.	.
.	.	.	.	.	.	.	.	4e/	.
1GG	-gra	1B-	in-	.	.	.	.	1d	-la
.	.	.	.	4c\	.	.	.	.	.
.	.	.	.	4d\	.	.	.	.	.
.	.	.	.	4B-\	.	.	.	.	.
=16	=16	=16	=16	=16	=16	=16	=16	=16	=16
1r	.	1A	-te-	2.c\	.	[0e	-ta,	0c	ta,
.	.	.	.	4d\	.	.	.	.	.
1C	et	1G	-gra	2e\	.	.	.	.	.
.	.	.	.	2c\	.	.	.	.	.
=17	=17	=17	=17	=17	=17	=17	=17	=17	=17
2.AA/	cas-	1A	et	2r	.	0e]	.	1r	.
.	.	.	.	2.c\	et	.	.	.	.
4BB-/	.	.	.	.	.	.	.	.	.
1C	.	1G	cas-	.	.	.	.	1g	in-
.	.	.	.	4B-\	.	.	.	.	.
.	.	.	.	2c\	.	.	.	.	.
=18	=18	=18	=18	=18	=18	=18	=18	=18	=18
0FF	-ta	0F	-ta	2.A/	cas-	1r	.	2a/	-te-
.	.	.	.	.	.	.	.	2f/	.
.	.	.	.	4B-\	.	.	.	.	.
.	.	.	.	1c	-ta	1f	in-	1a	.
=19	=19	=19	=19	=19	=19	=19	=19	=19	=19
1C	es	1G	es	2r	.	1e	-te-	1g	-gra
.	.	.	.	2c\	es	.	.	.	.
1D	Ma-	1F	Ma-	2.A/	Ma-	1d	-gra	1r	.
.	.	.	.	4B-\	.	.	.	.	.
=20	=20	=20	=20	=20	=20	=20	=20	=20	=20
2.C/	-ri-	0G	-ri-	2c\	.	1e	et	0r	.
.	.	.	.	2C/	.	.	.	.	.
4AA/	.	.	.	.	.	.	.	.	.
1BB-	.	.	.	1D	-ri-	1d	cas-	.	.
=21	=21	=21	=21	=21	=21	=21	=21	=21	=21
0AA	-a,	[0A	-a.	2E/	-a,	0c	-ta	2r	.
.	.	.	.	2F/	es	.	.	2.a/	et
.	.	.	.	2E/	.	.	.	.	.
.	.	.	.	.	.	.	.	4g/	.
.	.	.	.	2A/	Ma-	.	.	2e/	.
=22	=22	=22	=22	=22	=22	=22	=22	=22	=22
1D	es	0A]	.	2.F/	-ri-	1d	es	1f	cas-
.	.	.	.	4G/	.	.	.	.	.
2AA/	.	.	.	1A	-a,	1c	Ma-	2e/	-ta
2A\	Ma-	.	.	.	.	.	.	2cc\	es
=23	=23	=23	=23	=23	=23	=23	=23	=23	=23
2G\	-ri-	0r	.	1r	.	0d	-ri-	2b-\	Ma-
1F	.	.	.	.	.	.	.	1a	-ri-
.	.	.	.	2.A/	es	.	.	.	.
4E\	.	.	.	.	.	.	.	4g/	.
4D\	.	.	.	4B-\	.	.	.	4f/	.
=24	=24	=24	=24	=24	=24	=24	=24	=24	=24
[0C	-a,	0r	.	2.c\	.	[0e	-a,	2e/	.
.	.	.	.	.	.	.	.	2.g/	.
.	.	.	.	4B-\	.	.	.	.	.
.	.	.	.	2G/	Ma-	.	.	.	.
.	.	.	.	.	.	.	.	4f/	.
.	.	.	.	[2A/	-ri-	.	.	4e/	.
.	.	.	.	.	.	.	.	4d/	.
=25	=25	=25	=25	=25	=25	=25	=25	=25	=25
0C]	.	0r	.	4A/]	.	0e]	.	1c	-a,
.	.	.	.	4G/	.	.	.	.	.
.	.	.	.	4A/	.	.	.	.	.
.	.	.	.	4F/	.	.	.	.	.
.	.	.	.	2G/	-a,	.	.	2r	.
.	.	.	.	2c\	es	.	.	2g/	Que
=26	=26	=26	=26	=26	=26	=26	=26	=26	=26
1r	.	0F	Que	2.A/	Ma-	0r	.	1.a	es
.	.	.	.	4B-\	.	.	.	.	.
[1F	Que	.	.	1c	-ri-	.	.	.	.
.	.	.	.	.	.	.	.	2b-\	ef-
=27	=27	=27	=27	=27	=27	=27	=27	=27	=27
2F\]	.	1A	es	1F	-a,	0r	.	1cc	-fec-
2E\	es	.	.	.	.	.	.	.	.
1D	ef-	1B-	ef-	2r	.	.	.	1f	-ta
.	.	.	.	2F/	Que	.	.	.	.
=28	=28	=28	=28	=28	=28	=28	=28	=28	=28
2C/	-fec-	1A	-fec-	2E/	es	0r	.	0r	.
2AA/	.	.	.	2C/	ef-	.	.	.	.
1BB-	.	1G	-ta	1D	-fec-	.	.	.	.
=29	=29	=29	=29	=29	=29	=29	=29	=29	=29
1AA	.	1r	.	2E/	.	0c	Que	1r	.
.	.	.	.	2C/	.	.	.	.	.
1FF	-ta	1A	ful-	1F	.	.	.	2r	.
.	.	.	.	.	.	.	.	[2cc\	ful-
=30	=30	=30	=30	=30	=30	=30	=30	=30	=30
1C	ful-	1G	-gi-	1E	-ta-	1e	es	4cc\]	.
.	.	.	.	.	.	.	.	4b-\	.
.	.	.	.	.	.	.	.	2g/	.
1FF	-gi	1F	-da	[1c	-ful-	1f	ef-	1a	-gi-
=31	=31	=31	=31	=31	=31	=31	=31	=31	=31
2.C/	da	1r	.	2c\]	.	1e	-fec-	0g	-da
.	.	.	.	2G/	-gi-	.	.	.	.
4BB-/	.	.	.	.	.	.	.	.	.
1GG	.	1G	ce-	1B-	-da	1d	-ta	.	.
=32	=32	=32	=32	=32	=32	=32	=32	=32	=32
1D	ce-	1F	-li	2A/	ce-	1r	.	0r	.
.	.	.	.	2D/	.	.	.	.	.
1C	-li	[1G	por-	2E/	.	1e	ful-	.	.
.	.	.	.	2C/	-li	.	.	.	.
=33	=33	=33	=33	=33	=33	=33	=33	=33	=33
1BB-	por-	1G]	.	1D	por-	1d	-gi-	0r	.
1AA	-ta,	1A	-ta.	2E/	-ta,	1c	-da	.	.
.	.	.	.	2c\	ce-	.	.	.	.
=34	=34	=34	=34	=34	=34	=34	=34	=34	=34
2D\	ce-	0r	.	2B-\	-li	1r	.	0r	.
2C/	-li-	.	.	2.A/	por-	.	.	.	.
1BB-	-por-	.	.	.	.	1d	ce-	.	.
.	.	.	.	4G/	.	.	.	.	.
.	.	.	.	4G/	.	.	.	.	.
.	.	.	.	4F/	.	.	.	.	.
=35	=35	=35	=35	=35	=35	=35	=35	=35	=35
1AA	-ta.	0r	.	1A	-ta,	1c	-li-	1cc	ce-
1r	.	.	.	2G/	ce-	[1d	-por-	2b-\	-li
.	.	.	.	2F/	-li	.	.	[2a/	por-
=36	=36	=36	=36	=36	=36	=36	=36	=36	=36
0r	.	0r	.	1B-	por-	1d]	.	4a/]	.
.	.	.	.	.	.	.	.	4g/	.
.	.	.	.	.	.	.	.	4g/	.
.	.	.	.	.	.	.	.	4f/	.
.	.	.	.	1A	-ta.	1e	-ta.	1a	-ta.
=37	=37	=37	=37	=37	=37	=37	=37	=37	=37
1.AA	O	0A	O	1.c	O	0r	.	1r	.
.	.	.	.	.	.	.	.	[1cc	O
2BB-/	.	.	.	2d\	.	.	.	.	.
=38	=38	=38	=38	=38	=38	=38	=38	=38	=38
1C	Ma-	1G	ma-	1e	Ma-	0r	.	2cc\]	.
.	.	.	.	.	.	.	.	2b-\	.
1FF	-ter	1F	-ter	2A/	-ter	.	.	1a	ma-
.	.	.	.	2f\	al-	.	.	.	.
=39	=39	=39	=39	=39	=39	=39	=39	=39	=39
*k[]	*	*	*	*k[]	*	*	*	*k[]	*
2r	.	1.G	al-	2d\	-ma	0r	.	1g	-ter
1C	al-	.	.	1e	Chris-	.	.	.	.
.	.	.	.	.	.	.	.	1r	.
2D\	-ma	2F\	-ma	4d\	.	.	.	.	.
.	.	.	.	4c\	.	.	.	.	.
=40	=40	=40	=40	=40	=40	=40	=40	=40	=40
1E	Chris-	1G	Chris-	1Bni	.	0e	O	0r	.
2AA/	-ti	1A	-ti	1A	-ti,	.	.	.	.
2A\	ca-	.	.	.	.	.	.	.	.
=41	=41	=41	=41	=41	=41	=41	=41	=41	=41
2F\	-ris-	0r	.	1r	.	1d	ma-	1r	.
2G\	.	.	.	.	.	.	.	.	.
1E	-si-	.	.	1G	al-	1c	-ter-	2r	.
.	.	.	.	.	.	.	.	2g/	al-
=42	=42	=42	=42	=42	=42	=42	=42	=42	=42
1D	-ma,	0r	.	2A/	-ma-	1.d	-al-	2f/	.
.	.	.	.	2.F/	-Chris-	.	.	2.a/	.
1r	.	.	.	.	.	.	.	.	.
.	.	.	.	4G/	.	.	.	4g/	.
.	.	.	.	2A/	.	2c\	-ma	2e/	-ma
=43	=43	=43	=43	=43	=43	=43	=43	=43	=43
1r	.	1r	.	1D	-ti	1d	Chris-	1f	Chris-
1C	ca-	1c	Ca-	2r	.	1e	-ti	1e	-ti
.	.	.	.	2G/	ca-	.	.	.	.
=44	=44	=44	=44	=44	=44	=44	=44	=44	=44
*	*	*	*	*	*	*k[]	*	*	*
2D\	-ris-	2B-\	-ris-	2F/	-ris-	0r	.	0r	.
2AA/	.	2A\	.	2.E/	.	.	.	.	.
1BB	-si-	1G	-si-	.	.	.	.	.	.
.	.	.	.	4D/	.	.	.	.	.
.	.	.	.	4D/	-si-	.	.	.	.
.	.	.	.	4C/	.	.	.	.	.
=45	=45	=45	=45	=45	=45	=45	=45	=45	=45
0AA	-ma,	1A	-ma,	2E/	-ma,	0r	.	1r	.
.	.	.	.	2.c\	ca-	.	.	.	.
.	.	1c	ca-	.	.	.	.	2r	.
.	.	.	.	4B\	.	.	.	.	.
.	.	.	.	2A/	.	.	.	2c/	ca-
=46	=46	=46	=46	=46	=46	=46	=46	=46	=46
1r	.	2B-\	-ris-	2G/	-ris-	1r	.	2d/	-ris-
.	.	2A\	.	2A/	-si-	.	.	2A/	.
2r	.	1G	-si-	1E	-ma,	1g	ca-	1B	-si
2E\	ca-	.	.	.	.	.	.	.	.
=47	=47	=47	=47	=47	=47	=47	=47	=47	=47
2F\	-ris-	0A	-ma:	2r	.	2f\	-ris-	1A	ma,
2C/	.	.	.	2E/	ca-	2e\	.	.	.
1D	-si-	.	.	2F/	-ris-	1d	-si-	2r	.
.	.	.	.	2D/	-si-	.	.	2A/	ca-
=48	=48	=48	=48	=48	=48	=48	=48	=48	=48
1AA	-ma,	0r	.	1A	-ma,	1e	-ma,	1c	-ris-
2r	.	.	.	2r	.	1g	ca-	1B	-si-
2E\	ca-	.	.	2G/	ca-	.	.	.	.
=49	=49	=49	=49	=49	=49	=49	=49	=49	=49
2F\	-ris-	0r	.	2A/	-ris-	2f\	-ris-	0A	-ma:
2C/	.	.	.	2E/	.	2e\	.	.	.
1D	-si	.	.	1F	-si-	1d	-si-	.	.
=50	=50	=50	=50	=50	=50	=50	=50	=50	=50
0AA	ma:	1r	.	0E	-ma:	0e	-ma:	1r	.
.	.	1A	Sus-	.	.	.	.	1c	Sus-
=51	=51	=51	=51	=51	=51	=51	=51	=51	=51
1r	.	2G\	-ci-	0r	.	0r	.	2d/	-ci-
.	.	2F\	-pe	.	.	.	.	2f/	-pe-
1C	Sus-	1G	pi-	.	.	.	.	1e	-pi-
=52	=52	=52	=52	=52	=52	=52	=52	=52	=52
2D\	-ci-	1F	-a	0r	.	0r	.	1A	-a
2F\	-pe	.	.	.	.	.	.	.	.
1E	pi-	1G	lau-	.	.	.	.	1B	lau-
=53	=53	=53	=53	=53	=53	=53	=53	=53	=53
0AA	-a	0A	-dum	1r	.	1r	.	1.c	-dum,
.	.	.	.	1c	Sus-	1e	Sus-	.	.
.	.	.	.	.	.	.	.	4B/	.
.	.	.	.	.	.	.	.	4A/	.
=54	=54	=54	=54	=54	=54	=54	=54	=54	=54
0r	.	0r	.	2d\	-ci-	2d\	-ci-	1a	.
.	.	.	.	2e\	-pe	2c\	-pe	.	.
.	.	.	.	1f	pi-	1d	pi-	2r	.
.	.	.	.	.	.	.	.	[2a/	lau-
=55	=55	=55	=55	=55	=55	=55	=55	=55	=55
1AA	lau-	0r	.	1e	-a	1c	-a	4a/]	.
.	.	.	.	.	.	.	.	4g/	.
.	.	.	.	.	.	.	.	2e/	.
2.D\	.	.	.	2.A/	lau-	1d	lau-	1f	.
4C/	.	.	.	4B\	.	.	.	.	.
=56	=56	=56	=56	=56	=56	=56	=56	=56	=56
1AA	-dum	1r	.	2c\	-dum	0e	-dum	0e	-dum
.	.	.	.	4A/	pre-	.	.	.	.
.	.	.	.	4B\	.	.	.	.	.
1A	pre-	1c	pre-	4c\	.	.	.	.	.
.	.	.	.	4d\	.	.	.	.	.
.	.	.	.	[2e\	-co-	.	.	.	.
=57	=57	=57	=57	=57	=57	=57	=57	=57	=57
2.G\	-co-	1B-	-co-	4e\]	.	0r	.	0r	.
.	.	.	.	4d\	.	.	.	.	.
.	.	.	.	1d	.	.	.	.	.
4F\	.	.	.	.	.	.	.	.	.
1E	-ni-	1G	-ni-	.	.	.	.	.	.
.	.	.	.	2c#i\	-ni-	.	.	.	.
=58	=58	=58	=58	=58	=58	=58	=58	=58	=58
1D	-a,	1A	-a,	2d\	-a,	0r	.	0r	.
.	.	.	.	4A/	pre-	.	.	.	.
.	.	.	.	4B\	.	.	.	.	.
1A	pre-	2r	.	4c\	.	.	.	.	.
.	.	.	.	4d\	.	.	.	.	.
.	.	2A\	pre-	[2e\	-co-	.	.	.	.
=59	=59	=59	=59	=59	=59	=59	=59	=59	=59
2.G\	-co-	1B-	-co-	4e\]	.	1r	.	1r	.
.	.	.	.	4d\	.	.	.	.	.
.	.	.	.	1d	.	.	.	.	.
4F\	.	.	.	.	.	.	.	.	.
1E	-ni-	1G	-ni-	.	.	1g	pre-	2r	.
.	.	.	.	2c#i\	-ni-	.	.	2e/	pre-
=60	=60	=60	=60	=60	=60	=60	=60	=60	=60
0D	-a,	[0Al	-a.	1d	-a,	1f	-co-	2f/	-co-
.	.	.	.	.	.	.	.	2d/	.
.	.	.	.	1f	pre-	1d	-ni-	1dd	-ni-
=61	=61	=61	=61	=61	=61	=61	=61	=61	=61
1r	.	0A_	.	2.e\	-co-	1e	-a,	1cc	-a,
.	.	.	.	4d\	.	.	.	.	.
1AA	pre-	.	.	4c\	.	2r	.	2r	.
.	.	.	.	4B\	.	.	.	.	.
.	.	.	.	[2A/	.	2e\	pre-	2cc\	pre-
=62	=62	=62	=62	=62	=62	=62	=62	=62	=62
1D	-co-	0A_	.	4A/]	.	1f	-co-	2dd\	-co-
.	.	.	.	4G/	.	.	.	.	.
.	.	.	.	4F/	.	.	.	2a/	.
.	.	.	.	4E/	.	.	.	.	.
1D	-ni-	.	.	1F	-ni-	1d	-ni-	1dd	-ni-
=63	=63	=63	=63	=63	=63	=63	=63	=63	=63
0AAl	-a.	0A]	.	0El	-a.	0el	-a.	0ccl	-a.
!!LO:LB:i:g=z
=64||	=64||	=64||	=64||	=64||	=64||	=64||	=64||	=64||	=64||
*>B	*>B	*>B	*>B	*>B	*>B	*>B	*>B	*>B	*>B
*clefF4	*	*clefF4	*	*clefGv2	*	*clefGv2	*	*clefG2	*
*k[b-]	*	*k[b-]	*	*k[b-]	*	*k[]	*	*k[b-]	*
*M2/1	*	*M2/1	*	*M2/1	*	*M2/1	*	*M2/1	*
*met(C|)	*	*met(C|)	*	*met(C|)	*	*met(C|)	*	*met(C|)	*
!	!	!LO:TX:Z=16:X:=40:t=Canon at the upper fifth (T1-->T2, 2 breves)	!	!	!	!	!	!	!
!!section: Nostra ut pura pectora
!!!OMD: Nostra ut pura pectora
1F	No-	0r	.	0r	.	0r	.	0r	.
1F	-stra	.	.	.	.	.	.	.	.
=65	=65	=65	=65	=65	=65	=65	=65	=65	=65
1A	ut	0r	.	0r	.	0r	.	0r	.
1B-	pu-	.	.	.	.	.	.	.	.
=66	=66	=66	=66	=66	=66	=66	=66	=66	=66
1A	-ra	0r	.	1F	Nos-	0r	.	0r	.
[1c	pec-	.	.	1F	-tra	.	.	.	.
=67	=67	=67	=67	=67	=67	=67	=67	=67	=67
2c\]	.	0r	.	1A	ut	0r	.	0r	.
4B-\	.	.	.	.	.	.	.	.	.
4A\	.	.	.	.	.	.	.	.	.
1G	-to-	.	.	1B-	pu-	.	.	.	.
=68	=68	=68	=68	=68	=68	=68	=68	=68	=68
2F\	-ra,	0r	.	1A	-ra	0r	.	0r	.
4FF/	pec-	.	.	.	.	.	.	.	.
4GG/	.	.	.	.	.	.	.	.	.
4AA/	.	.	.	[1c	pec-	.	.	.	.
4BB-/	.	.	.	.	.	.	.	.	.
4C/	.	.	.	.	.	.	.	.	.
4D\	.	.	.	.	.	.	.	.	.
=69	=69	=69	=69	=69	=69	=69	=69	=69	=69
2E\	.	0r	.	2c\]	.	0r	.	0r	.
2.F\	.	.	.	4B-\	.	.	.	.	.
.	.	.	.	4A/	.	.	.	.	.
.	.	.	.	1G	-to-	.	.	.	.
4E\	.	.	.	.	.	.	.	.	.
4E\	-to-	.	.	.	.	.	.	.	.
4D\	.	.	.	.	.	.	.	.	.
=70	=70	=70	=70	=70	=70	=70	=70	=70	=70
2F\	-ra	0r	.	1F	-ra	0r	.	0r	.
2D\	sint	.	.	.	.	.	.	.	.
2E\	et	.	.	[1G	sint	.	.	.	.
[2C/	cor-	.	.	.	.	.	.	.	.
=71	=71	=71	=71	=71	=71	=71	=71	=71	=71
2C/]	.	0r	.	1G]	.	0r	.	0r	.
4BB-/	.	.	.	.	.	.	.	.	.
4AA/	.	.	.	.	.	.	.	.	.
2BB-/	.	.	.	1G	et	.	.	.	.
2C/	-po-	.	.	.	.	.	.	.	.
=72	=72	=72	=72	=72	=72	=72	=72	=72	=72
2FF/	-ra,	0r	.	1A	cor-	0r	.	0r	.
2F\	sint	.	.	.	.	.	.	.	.
2E\	et	.	.	2G/	.	.	.	.	.
[2F\	cor-	.	.	[2A/	.	.	.	.	.
=73	=73	=73	=73	=73	=73	=73	=73	=73	=73
4F\]	.	0r	.	4A/]	.	0r	.	0r	.
4E\	.	.	.	4G/	.	.	.	.	.
4F\	.	.	.	4A/	.	.	.	.	.
4D\	.	.	.	4F/	.	.	.	.	.
2E\	.	.	.	2G/	.	.	.	.	.
2F\	-po-	.	.	[2A/	.	.	.	.	.
=74	=74	=74	=74	=74	=74	=74	=74	=74	=74
2C/	-ra,	0r	.	4A/]	.	0r	.	0r	.
.	.	.	.	4G/	.	.	.	.	.
2F\	sint	.	.	4A/	.	.	.	.	.
.	.	.	.	4F/	.	.	.	.	.
2E\	et	.	.	2G/	.	.	.	.	.
[2F\	cor-	.	.	[2A/	.	.	.	.	.
=75	=75	=75	=75	=75	=75	=75	=75	=75	=75
4F\]	.	0r	.	4A/]	.	0r	.	0r	.
4E\	.	.	.	4G/	.	.	.	.	.
4F\	.	.	.	4A/	.	.	.	.	.
4D\	.	.	.	4F/	.	.	.	.	.
4E\	-po-	.	.	1G	-po-	.	.	.	.
4F\	.	.	.	.	.	.	.	.	.
4G\	.	.	.	.	.	.	.	.	.
4E\	.	.	.	.	.	.	.	.	.
=76	=76	=76	=76	=76	=76	=76	=76	=76	=76
1F	-ra,	1F	Que	0F	-ra,	0r	.	2r	.
.	.	.	.	.	.	.	.	2cc\	Que
2r	.	1F	nunc	.	.	.	.	2a/	nunc
2F\	Que	.	.	.	.	.	.	2f/	.
=77	=77	=77	=77	=77	=77	=77	=77	=77	=77
2F\	nunc	1A	fla-	0r	.	0r	.	2c/	fla-
2F\	fla-	.	.	.	.	.	.	2.f/	.
1G	-gi-	1B-	-gi-	.	.	.	.	.	.
.	.	.	.	.	.	.	.	4e/	.
.	.	.	.	.	.	.	.	4e/	-gi-
.	.	.	.	.	.	.	.	4d/	.
=78	=78	=78	=78	=78	=78	=78	=78	=78	=78
0F	-tant	1A	-tant	2r	.	1c	Que	0f	-tant
.	.	.	.	2c\	Que	.	.	.	.
.	.	1A	de-	2A/	nunc	1c	nunc	.	.
.	.	.	.	2F/	.	.	.	.	.
=79	=79	=79	=79	=79	=79	=79	=79	=79	=79
2r	.	1G	-vo-	2C/	fla-	1e	fla-	0r	.
2C/	de-	.	.	2.c\	.	.	.	.	.
1D	-vo-	1F	-ta	.	.	1f	-gi-	.	.
.	.	.	.	4Bni\	.	.	.	.	.
.	.	.	.	4Bni\	-gi-	.	.	.	.
.	.	.	.	4A/	.	.	.	.	.
=80	=80	=80	=80	=80	=80	=80	=80	=80	=80
0C	-ta	1r	.	1c	-tant	1e	-tant	2r	.
.	.	.	.	.	.	.	.	2g/	de-
.	.	[1G	cor-	2r	.	1e	de-	2e/	.
.	.	.	.	2c\	de-	.	.	[2g/	-vo-
=81	=81	=81	=81	=81	=81	=81	=81	=81	=81
1GG	cor-	1G]	.	4B-\	-vo-	1d	-vo-	4g/]	.
.	.	.	.	4c\	.	.	.	4f/	.
.	.	.	.	4d\	.	.	.	2d/	.
.	.	.	.	4B-\	.	.	.	.	.
2C/	-da	1G	-da	2c\	.	1c	-ta	4e/	.
.	.	.	.	.	.	.	.	4f/	.
2E\	et	.	.	2C/	.	.	.	4g/	.
.	.	.	.	.	.	.	.	4e/	.
=82	=82	=82	=82	=82	=82	=82	=82	=82	=82
*	*	*	*	*M3/1	*	*	*	*	*
*	*	*	*	*met(3)	*	*	*	*	*
1D	o-	2A\	et	3.F/	.	1r	.	1f	-ta
.	.	2F\	.	6G/	.	.	.	.	.
.	.	.	.	3A/	.	.	.	.	.
1GG	.	1G	o-	3B-\	.	[1d	cor-	2r	.
.	.	.	.	3G/	.	.	.	.	.
.	.	.	.	.	.	.	.	2d/	cor-
.	.	.	.	3B-\	.	.	.	.	.
=83	=83	=83	=83	=83	=83	=83	=83	=83	=83
*	*	*	*	*k[]	*	*	*	*	*
*	*	*	*	*M2/1	*	*	*	*	*
*	*	*	*	*met(C|)	*	*	*	*	*
1D	-ra,	0F	-ra.	1A	-ta	1d]	.	2.f/	-da
.	.	.	.	.	.	.	.	4g/	.
2r	.	.	.	2r	.	1d	-da	2.a/	.
2D\	cor-	.	.	2F/	cor-	.	.	.	.
.	.	.	.	.	.	.	.	4b-\	.
=84	=84	=84	=84	=84	=84	=84	=84	=84	=84
2C/	-da	0r	.	2G/	-da	2e\	et	1cc	et
2AA/	et	.	.	2A/	et	2c\	.	.	.
2.BB-/	o-	.	.	2.D/	o-	1d	o	2.f/	o-
4AA/	.	.	.	4E/	.	.	.	4g/	.
=85	=85	=85	=85	=85	=85	=85	=85	=85	=85
*	*	*	*	*	*	*	*	*k[]	*
0FF	-ra.	1F	Tu-	1F	-ra.	0c	ra.	1a	-ra.
.	.	1F	-a	2r	.	.	.	2r	.
.	.	.	.	2F/	Tu-	.	.	2f/	Tu-
=86	=86	=86	=86	=86	=86	=86	=86	=86	=86
2r	.	1A	per	2F/	-a	0r	.	2cc\	-a
2FF/	Tu-	.	.	2F/	per	.	.	2a/	per
2.BB-/	-a	1B-	pre-	2.D/	pre-	.	.	1dd	pre-
4AA/	.	.	.	4E/	.	.	.	.	.
=87	=87	=87	=87	=87	=87	=87	=87	=87	=87
1FF	.	1A	-ca-	1F	-ca	1c	Tu-	1.cc	-ca-
1C	per	1G	-ta	1E	ta	1c	-a	.	.
.	.	.	.	.	.	.	.	4bni\	.
.	.	.	.	.	.	.	.	4a/	.
=88	=88	=88	=88	=88	=88	=88	=88	=88	=88
2C/	pre-	1r	.	0r	.	1e	per	1g	-ta
2E\	.	.	.	.	.	.	.	.	.
1D	-ca-	1A	dul-	.	.	1f	pre-	2r	.
.	.	.	.	.	.	.	.	2f/	dul-
=89	=89	=89	=89	=89	=89	=89	=89	=89	=89
1C	-ta	1c	-ci-	0r	.	1e	-ca-	2g/	-ci-
.	.	.	.	.	.	.	.	2.a/	-so-
1r	.	1B-	-so-	.	.	1d	-ta	.	.
.	.	.	.	.	.	.	.	4g/	.
.	.	.	.	.	.	.	.	4g/	.
.	.	.	.	.	.	.	.	4f/	.
=90	=90	=90	=90	=90	=90	=90	=90	=90	=90
2r	.	0A	-na:	2r	.	1r	.	0a	-na,
2AA/	dul-	.	.	2A/	dul-	.	.	.	.
4AA/	-ci-	.	.	1c	-ci-	1e	dul-	.	.
4BB-/	.	.	.	.	.	.	.	.	.
4C/	.	.	.	.	.	.	.	.	.
4D\	.	.	.	.	.	.	.	.	.
=91	=91	=91	=91	=91	=91	=91	=91	=91	=91
4E\	.	0r	.	1B	-so-	1g	-ci-	1r	.
4F\	.	.	.	.	.	.	.	.	.
4G\	.	.	.	.	.	.	.	.	.
4E\	.	.	.	.	.	.	.	.	.
2.F\	-so-	.	.	2A/	-na,	1f	-so-	1a	dul-
.	.	.	.	2F/	dul-	.	.	.	.
4E\	.	.	.	.	.	.	.	.	.
=92	=92	=92	=92	=92	=92	=92	=92	=92	=92
0C	-na:	0r	.	1c	-ci-	0e	-na:	2.g/	-ci-
.	.	.	.	.	.	.	.	4f/	.
.	.	.	.	1c	-so-	.	.	1g	-so-
=93	=93	=93	=93	=93	=93	=93	=93	=93	=93
1r	.	1F	No-	0A	-na:	0r	.	1a	-na:
1F	No-	1F	-bis	.	.	.	.	2r	.
.	.	.	.	.	.	.	.	2cc\	No-
=94	=94	=94	=94	=94	=94	=94	=94	=94	=94
2F\	-bis	1A	con-	0r	.	0r	.	2cc\	-bis
2F\	con-	.	.	.	.	.	.	2cc\	con-
1BB-	-ce-	1B-	-ce-	.	.	.	.	1dd	-ce-
=95	=95	=95	=95	=95	=95	=95	=95	=95	=95
*	*	*k[]	*	*	*	*	*	*	*
1.F	-das	0A	-das	2r	.	1c	No-	2cc\	-das
.	.	.	.	2c\	No-	.	.	1a	ve-
.	.	.	.	2A/	-bis	1c	-bis	.	.
4E\	.	.	.	[2c\	con-	.	.	4g/	.
4D\	.	.	.	.	.	.	.	4f/	.
=96	=96	=96	=96	=96	=96	=96	=96	=96	=96
2C/	.	1r	.	4c\]	.	1e	con-	1g	-ni-
.	.	.	.	4B\	.	.	.	.	.
2E\	ve-	.	.	2G/	.	.	.	.	.
1D	-ni-	[1A	ve-	2A/	-ce-	1f	-ce-	1f	-am,
.	.	.	.	2F/	-das	.	.	.	.
=97	=97	=97	=97	=97	=97	=97	=97	=97	=97
1C	-am,	2A\]	.	4c\	ve-	0e	-das	0r	.
.	.	.	.	4B\	.	.	.	.	.
.	.	4G\	.	4c\	.	.	.	.	.
.	.	4F\	.	4d\	.	.	.	.	.
1C	ve-	1G	-ni-	4e\	.	.	.	.	.
.	.	.	.	4f\	.	.	.	.	.
.	.	.	.	4g\	.	.	.	.	.
.	.	.	.	4e\	.	.	.	.	.
=98	=98	=98	=98	=98	=98	=98	=98	=98	=98
1D	-ni-	1F	-am	2.f\	-ni-	1r	.	2r	.
.	.	.	.	.	.	.	.	2a/	ve-
.	.	.	.	4e\	.	.	.	.	.
1AA	-am	1A	per	1c	-am	[1e	ve-	2.cc\	.
.	.	.	.	.	.	.	.	4b\	.
=99	=99	=99	=99	=99	=99	=99	=99	=99	=99
0r	.	1c	se-	0r	.	2e\]	.	2g/	.
.	.	.	.	.	.	4d\	.	2.a/	-ni-
.	.	.	.	.	.	4c\	.	.	.
.	.	1Bni	-cu-	.	.	1d	-ni-	.	.
.	.	.	.	.	.	.	.	4g#i/	.
.	.	.	.	.	.	.	.	4g#i/	.
.	.	.	.	.	.	.	.	4f#i/	.
=100	=100	=100	=100	=100	=100	=100	=100	=100	=100
1r	.	2A\	-la,	2r	.	1c	-am	0a	-am
.	.	2F\	per	2.c\	per	.	.	.	.
2r	.	1c	se-	.	.	1e	per	.	.
.	.	.	.	4B\	.	.	.	.	.
2AA/	per	.	.	[2A/	se	.	.	.	.
=101	=101	=101	=101	=101	=101	=101	=101	=101	=101
1E	se-	1B	-cu-	2A/]	.	1g	se-	0r	.
.	.	.	.	2G/	cu-	.	.	.	.
2.F\	-cu-	2A\	-la,	1A	-la,	1f	-cu-	.	.
.	.	2F\	per	.	.	.	.	.	.
4E\	.	.	.	.	.	.	.	.	.
=102	=102	=102	=102	=102	=102	=102	=102	=102	=102
2C/	-la,	1c	se-	0r	.	2e\	-la,	2r	.
2AA/	per	.	.	.	.	2c\	per	2a/	per
1E	se-	1B	-cu-	.	.	1g	se-	2b\	se-
.	.	.	.	.	.	.	.	2g/	-cu-
=103	=103	=103	=103	=103	=103	=103	=103	=103	=103
2.F\	-cu-	0A	-la,	2r	.	1f	-cu-	1a	-la,
.	.	.	.	2A/	per	.	.	.	.
4E\	.	.	.	.	.	.	.	.	.
2C/	-la,	.	.	2.c\	se-	2e\	-la,	2r	.
2AA/	per	.	.	.	.	2c\	per	2cc\	per
.	.	.	.	4B\	.	.	.	.	.
=104	=104	=104	=104	=104	=104	=104	=104	=104	=104
1E	se-	0r	.	1G	.	1g	se-	2b\	se-
.	.	.	.	.	.	.	.	2g/	.
2.D\	-cu-	.	.	1d	-cu-	1f	-cu-	2.a/	-cu-
4C/	.	.	.	.	.	.	.	4b\	.
=105	=105	=105	=105	=105	=105	=105	=105	=105	=105
0AAl	-la.	0Al	la.	0cl	-la.	0el	-la.	0ccl	-la.
!!LO:LB:i:g=z
=106||	=106||	=106||	=106||	=106||	=106||	=106||	=106||	=106||	=106||
*>C	*>C	*>C	*>C	*>C	*>C	*>C	*>C	*>C	*>C
*clefF4	*	*clefF4	*	*clefGv2	*	*clefGv2	*	*clefG2	*
*k[b-]	*	*k[b-]	*	*k[b-]	*	*k[b-]	*	*k[b-]	*
*M2/1	*	*M2/1	*	*M3/1	*	*M2/1	*	*M2/1	*
*met(C|)	*	*met(C|)	*	*met(C|)	*	*met(C|)	*	*met(C|)	*
!!section: O benigna
!!!OMD: O benigna
!	!	!LO:TX:Z=12:X=-40:t=Canon at the upper fifth (T1-->T2, 1 breve)	!	!	!	!	!	!	!
0r	.	0A	O	[0c	O	0r	.	1r	.
.	.	.	.	.	.	.	.	[1cc	O
=107	=107	=107	=107	=107	=107	=107	=107	=107	=107
0C	O	0G	be-	0c]	.	0e	O	1cc]	.
.	.	.	.	.	.	.	.	1g	be-
=108	=108	=108	=108	=108	=108	=108	=108	=108	=108
1GG	be-	0G	-ni-	0B-	be-	0d	be-	1g	-ni-
1GG	-ni-	.	.	.	.	.	.	[1b-	-gna,-
=109	=109	=109	=109	=109	=109	=109	=109	=109	=109
1.BB-	-gna,	0F	-gna,	0B-	-ni-	0d	-ni-	2b-\]	.
.	.	.	.	.	.	.	.	4a/	.
.	.	.	.	.	.	.	.	4g/	.
.	.	.	.	.	.	.	.	2.f/	.
2AA/	.	.	.	.	.	.	.	.	.
.	.	.	.	.	.	.	.	4g/	.
=110	=110	=110	=110	=110	=110	=110	=110	=110	=110
0FF	.	0r	.	0A	-gna,	0c	-gna,	2.a/	.
.	.	.	.	.	.	.	.	4b-\	.
.	.	.	.	.	.	.	.	1cc	.
=111	=111	=111	=111	=111	=111	=111	=111	=111	=111
0r	.	0A	O	[0c	O	0r	.	1r	.
.	.	.	.	.	.	.	.	[1cc	-O
=112	=112	=112	=112	=112	=112	=112	=112	=112	=112
0C	O	0G	re-	0c]	.	0e	O	1cc]	.
.	.	.	.	.	.	.	.	1g	re-
=113	=113	=113	=113	=113	=113	=113	=113	=113	=113
1GG	re-	0G	-gi-	0B-	re-	0d	re-	1g	-gi-
1GG	-gi-	.	.	.	.	.	.	[1b-	-na,
=114	=114	=114	=114	=114	=114	=114	=114	=114	=114
1.BB-	-na,	0F	-na,	0B-	-gi-	0d	-gi-	2b-\]	.
.	.	.	.	.	.	.	.	4a/	.
.	.	.	.	.	.	.	.	4g/	.
.	.	.	.	.	.	.	.	2.f/	.
2AA/	.	.	.	.	.	.	.	.	.
.	.	.	.	.	.	.	.	4g/	.
=115	=115	=115	=115	=115	=115	=115	=115	=115	=115
0FF	.	0r	.	0A	-na,	0c	-na,	2.a/	.
.	.	.	.	.	.	.	.	4b-\	.
.	.	.	.	.	.	.	.	1cc	.
=116	=116	=116	=116	=116	=116	=116	=116	=116	=116
0r	.	0A	O	[0c	O	0r	.	1r	.
.	.	.	.	.	.	.	.	[1cc	O
=117	=117	=117	=117	=117	=117	=117	=117	=117	=117
0C	O	0G	Ma-	0c]	.	0e	O	1cc]	.
.	.	.	.	.	.	.	.	1g	Ma-
=118	=118	=118	=118	=118	=118	=118	=118	=118	=118
1GG	Ma-	0G	-ri-	0B-	Ma-	0d	Ma-	1g	-ri-
1GG	-ri-	.	.	.	.	.	.	[1b-	-a,
=119	=119	=119	=119	=119	=119	=119	=119	=119	=119
1.BB-	-a,	0F	-a,	0B-	-ri-	0d	-ri-	2b-\]	.
.	.	.	.	.	.	.	.	4a/	.
.	.	.	.	.	.	.	.	4g/	.
.	.	.	.	.	.	.	.	1f	.
2AA/	.	.	.	.	.	.	.	.	.
=120	=120	=120	=120	=120	=120	=120	=120	=120	=120
1FF	.	0r	.	2A/	-a,	0c	-a,	1r	.
.	.	.	.	4F/	Que	.	.	.	.
.	.	.	.	4G/	.	.	.	.	.
2.F\	Que	.	.	4A/	.	.	.	1c	Que
.	.	.	.	4B-\	.	.	.	.	.
.	.	.	.	[2c\	so-	.	.	.	.
4E\	.	.	.	.	.	.	.	.	.
=121	=121	=121	=121	=121	=121	=121	=121	=121	=121
1D	so-	1F	Que	4c\]	.	0r	.	1d	so-
.	.	.	.	4Bni\	.	.	.	.	.
.	.	.	.	4Bni\	.	.	.	.	.
.	.	.	.	4A/	.	.	.	.	.
1C	-la	1G	so-	1c	-la	.	.	1e	-la,
=122	=122	=122	=122	=122	=122	=122	=122	=122	=122
2r	.	1A	-la	2r	.	1c	Que	0r	.
2F\	in-	.	.	2A/	in-	.	.	.	.
2BB-/	-vi-	1r	.	2B-\	-vi-	1d	so-	.	.
2D\	-o-	.	.	2A/	-o-	.	.	.	.
=123	=123	=123	=123	=123	=123	=123	=123	=123	=123
1C	-la	1A	in-	1c	-la-	1e	-la	1r	.
2BB-/	.	2B-\	-vi-	1F	-ta,	1r	.	1f	que
2FF/	.	2A\	-o-	.	.	.	.	.	.
=124	=124	=124	=124	=124	=124	=124	=124	=124	=124
1C	.	1G	-la-	2r	.	1e	in-	1g	so-
.	.	.	.	2c\	in-	.	.	.	.
1FF	ta	[1F	.	2A/	-vi-	2f\	-vi-	1a	-la
.	.	.	.	2c\	-o-	2e\	-o-	.	.
=125	=125	=125	=125	=125	=125	=125	=125	=125	=125
1BB-	per-	2F\]	.	2.B-\	-la-	1d	-la-	1r	.
.	.	4E\	.	.	.	.	.	.	.
.	.	4D\	.	8A/L	.	.	.	.	.
.	.	.	.	8B-/J	.	.	.	.	.
2.C/	-man-	1E	-ta	4A/	.	[1c	.	2r	.
.	.	.	.	4G/	.	.	.	.	.
.	.	.	.	[2G/	.	.	.	2g/	in-
4BB-/	.	.	.	.	.	.	.	.	.
=126	=126	=126	=126	=126	=126	=126	=126	=126	=126
1AA	-sis-	1r	.	4G/]	.	2c\]	.	1a	-vi-
.	.	.	.	4E/	.	.	.	.	.
.	.	.	.	2F/	.	4B-\	.	.	.
.	.	.	.	.	.	4A/	.	.	.
1GG	.	1G	per-	3G/V	.	1B-	-ta	1d	-o-
.	.	.	.	3D/	.	.	.	.	.
.	.	.	.	3G/Z	.	.	.	.	.
=127	=127	=127	=127	=127	=127	=127	=127	=127	=127
*	*	*	*	*M3/1	*	*	*	*	*
*	*	*	*	*met(3)	*	*	*	*	*
2C/	.	1G	-man-	3E/	.	1r	.	1e	-la-
.	.	.	.	3G/	.	.	.	.	.
2E\	.	.	.	.	.	.	.	.	.
.	.	.	.	3C/	.	.	.	.	.
1D	.	1A	.	3.F/	.	1d	per-	1f	-ta
.	.	.	.	6G/	.	.	.	.	.
.	.	.	.	3A/	.	.	.	.	.
=128	=128	=128	=128	=128	=128	=128	=128	=128	=128
*	*	*	*	*M2/1	*	*	*	*	*
*	*	*	*	*met(C|)	*	*	*	*	*
1GG	-ti,	1.G	.	4B-\	.	1d	-man-	1r	.
.	.	.	.	4c\	.	.	.	.	.
.	.	.	.	4d\	.	.	.	.	.
.	.	.	.	4B-\	.	.	.	.	.
1C	per-	.	.	1c	.	1e	.	1g	per-
.	.	2E\	.	.	.	.	.	.	.
=129	=129	=129	=129	=129	=129	=129	=129	=129	=129
2.D\	-man-	1F	-sis-	1A	-ta	1.d	.	2.f/	-man-
4C/	.	.	.	.	.	.	.	4e/	.
1BB-	-sis-	1G	.	2r	.	.	.	1d	-sis-
.	.	.	.	2D/	per-	2B-\	.	.	.
=130	=130	=130	=130	=130	=130	=130	=130	=130	=130
*	*	*	*	*k[]	*	*	*	*	*
1AA	.	1A	.	2E/	-man-	1c	-sis-	1c	-ti,
.	.	.	.	2.F/	-sis-	.	.	.	.
1D	.	1F	.	.	.	1d	.	1f	per-
.	.	.	.	4G/	.	.	.	.	.
.	.	.	.	4A/	.	.	.	.	.
.	.	.	.	4Bni\	.	.	.	.	.
=131	=131	=131	=131	=131	=131	=131	=131	=131	=131
1C	.	1G	.	1.c	.	1e	.	2e/	-man-
.	.	.	.	.	.	.	.	2g/	.
2.F\	.	1A	.	.	.	1c	.	2f/	.
.	.	.	.	2F/	.	.	.	[2a/	-sis-
4E\	.	.	.	.	.	.	.	.	.
=132	=132	=132	=132	=132	=132	=132	=132	=132	=132
1D	.	1F	.	2.A/	.	1d	.	4a/]	.
.	.	.	.	.	.	.	.	4g/	.
.	.	.	.	.	.	.	.	2f/	.
.	.	.	.	4Bni\	.	.	.	.	.
1C	-ti.	1G	.	1c	-ti,	1e	.	2e/	-ti,
.	.	.	.	.	.	.	.	[2cc\	per-
=133	=133	=133	=133	=133	=133	=133	=133	=133	=133
2r	.	0A	.	1r	.	1c	.	4cc\]	.
.	.	.	.	.	.	.	.	4b-\	.
2F\	per-	.	.	.	.	.	.	4a/	.
.	.	.	.	.	.	.	.	4g/	.
2D\	.	.	.	2r	.	1d	.	4f/	.
.	.	.	.	.	.	.	.	4g/	.
2F\	-man-	.	.	2A/	per-	.	.	4a/	.
.	.	.	.	.	.	.	.	4f/	.
=134	=134	=134	=134	=134	=134	=134	=134	=134	=134
2E\	-sis-	[0G	.	2B\	.	0e	.	2g/	.
2.C/	.	.	.	2c\	.	.	.	2e/	-man-
.	.	.	.	2G/	.	.	.	[1g	-sis-
4BB-/	.	.	.	.	.	.	.	.	.
2C/	.	.	.	2c\	-man-	.	.	.	.
=135	=135	=135	=135	=135	=135	=135	=135	=135	=135
*	*	*	*	*k[b-]	*	*	*	*	*
1GG	-ti,	0G]	.	2B-\	-sis-	[0d	.	2g/]	.
.	.	.	.	1G	.	.	.	4f/	.
.	.	.	.	.	.	.	.	4e/	.
2r	.	.	.	.	.	.	.	2d/	-ti,
2GG/	per-	.	.	4F/	.	.	.	[2b-\	per-
.	.	.	.	4E/	.	.	.	.	.
=136	=136	=136	=136	=136	=136	=136	=136	=136	=136
1BB-	-man-	[0F	-ti,	1D	-ti,	0d]	.	2b-\]	.
.	.	.	.	.	.	.	.	4a/	.
.	.	.	.	.	.	.	.	4g/	.
1BB-	-sis-	.	.	1B-	per-	.	.	2.f/	.
.	.	.	.	.	.	.	.	4g/	.
=137	=137	=137	=137	=137	=137	=137	=137	=137	=137
1FF	-ti,	0F_	.	2A/	.	[0cl	-ti.	4a/	.
.	.	.	.	.	.	.	.	4b-\	.
.	.	.	.	2F/	-man-	.	.	2cc\	.
2.F\	per-	.	.	2.A/	-sis	.	.	2a/	-man-
.	.	.	.	.	.	.	.	4cc\	-sis-
4G\	.	.	.	4B-\	.	.	.	4b-\	.
=138	=138	=138	=138	=138	=138	=138	=138	=138	=138
2.A\	-man-	0F]	.	1c	ti,	0c_	.	4a/	.
.	.	.	.	.	.	.	.	4g/	.
.	.	.	.	.	.	.	.	2a/	-ti,
4B-\	.	.	.	.	.	.	.	.	.
2.c\	-sis-	.	.	2r	.	.	.	2r	.
.	.	.	.	2F/	per-	.	.	[2cc\	per-
4B-\	.	.	.	.	.	.	.	.	.
=139	=139	=139	=139	=139	=139	=139	=139	=139	=139
4A\	.	1r	.	2.F/	-man-	0c_	.	4cc\]	.
4G\	.	.	.	.	.	.	.	4b-\	.
1F	.	.	.	.	.	.	.	1a	.
.	.	.	.	4G/	.	.	.	.	.
.	.	1F	per-	2.A/	.	.	.	.	.
4E\	.	.	.	.	.	.	.	4g/	.
4D\	.	.	.	4B-\	.	.	.	4f/	.
=140	=140	=140	=140	=140	=140	=140	=140	=140	=140
[0C	-ti,	2G\	-man-	1c	.	0c_	.	2e/	-man-
.	.	2E\	.	.	.	.	.	4c/	-sis-
.	.	.	.	.	.	.	.	4d/	.
.	.	2G\	.	4C/	-sis-	.	.	4e/	.
.	.	.	.	4D/	.	.	.	4f/	.
.	.	2C/	.	4E/	.	.	.	[2g/	.
.	.	.	.	4F/	.	.	.	.	.
=141	=141	=141	=141	=141	=141	=141	=141	=141	=141
0C]	.	2E\	-sis-	2G/	.	0c_	.	4g/]	.
.	.	.	.	.	.	.	.	4f/	.
.	.	2F\	.	2A/	.	.	.	1f	.
.	.	1G	.	2G/	-ti,	.	.	.	.
.	.	.	.	2c\	per-	.	.	2e/	.
=142	=142	=142	=142	=142	=142	=142	=142	=142	=142
1r	.	[0Fl	-ti.	2A/	-man-	0c_	.	[0fl	-ti.
.	.	.	.	2.c\	-sis-	.	.	.	.
[1F	per-	.	.	.	.	.	.	.	.
.	.	.	.	4B-\	.	.	.	.	.
.	.	.	.	4A/	.	.	.	.	.
.	.	.	.	4G/	.	.	.	.	.
=143	=143	=143	=143	=143	=143	=143	=143	=143	=143
2F\]	.	0F_	.	[0Al	-ti.	0c_	.	0f_	.
2F\	-man-	.	.	.	.	.	.	.	.
1F	-sis-	.	.	.	.	.	.	.	.
=144	=144	=144	=144	=144	=144	=144	=144	=144	=144
0FFl	-ti.	0F]	.	0A]	.	0c]	.	0f]	.
==	==	==	==	==	==	==	==	==	==
*-	*-	*-	*-	*-	*-	*-	*-	*-	*-
!!!RDF**kern: l=long note in original notation
!!!RDF**kern: i=editorial accidental
!!!ENC:	Will Watson 2011/04/06; Victoria Chang 2011/04/10; Jesse Rodin 2013/04/03 (text)
!!!END:	2011/04/06/
!!!SMS:	Smijers 73
!!!EED:	Jesse Rodin
!!!EEV:	2013/03/08/
!!attribution-level@Jos: 1 (secure)
!!!ONB:	Translated from MusicXML and edited on 2013/03/08/ by Craig Sapp
!!muse2ps: u^(2) @{OTL2}  (3) @{OTL3}^C^@{COM}\n@{SCT}^i2I150v90,90,90,90,110c100Q16
!!!ONB: April 2013 Concert
